packages/ui/public/icons/settings.svg

<svg width="17" height="17" viewBox="0 0 17 17" fill="none" xmlns="http://www.w3.org/2000/svg">
<path d="M7.72314 16.8638H9.22461C9.56152 16.8638 9.85449 16.7661 10.1035 16.5708C10.3574 16.3755 10.5234 16.1143 10.6016 15.7871L10.8652 14.6226L10.9897 14.5786L12.0078 15.2012C12.291 15.3818 12.5913 15.4502 12.9087 15.4062C13.2261 15.3623 13.5044 15.2207 13.7437 14.9814L14.7764 13.9561C15.0205 13.707 15.1621 13.4263 15.2012 13.1138C15.2402 12.7964 15.1719 12.4961 14.9961 12.2129L14.3662 11.2095L14.4102 11.0923L15.5674 10.814C15.8896 10.7358 16.1484 10.5723 16.3438 10.3232C16.5391 10.0693 16.6367 9.77393 16.6367 9.43701V8.00146C16.6367 7.66943 16.5391 7.37646 16.3438 7.12256C16.1484 6.86865 15.8896 6.70264 15.5674 6.62451L14.4175 6.34619L14.3662 6.22168L14.9961 5.21826C15.1768 4.93506 15.2451 4.63721 15.2012 4.32471C15.1621 4.01221 15.0229 3.729 14.7837 3.4751L13.7437 2.44971C13.5093 2.21045 13.2334 2.06885 12.916 2.0249C12.5986 1.98096 12.2983 2.04688 12.0151 2.22266L10.9971 2.84521L10.8652 2.79395L10.6016 1.62939C10.5234 1.30713 10.3574 1.04834 10.1035 0.853027C9.85449 0.652832 9.56152 0.552734 9.22461 0.552734H7.72314C7.38623 0.552734 7.09082 0.652832 6.83691 0.853027C6.58789 1.05322 6.42432 1.31201 6.34619 1.62939L6.0752 2.79395L5.94336 2.84521L4.93262 2.22266C4.64453 2.04688 4.3418 1.98096 4.02441 2.0249C3.71191 2.06885 3.43604 2.21045 3.19678 2.44971L2.16406 3.4751C1.91992 3.729 1.77832 4.01221 1.73926 4.32471C1.7002 4.63721 1.771 4.93506 1.95166 5.21826L2.57422 6.22168L2.53027 6.34619L1.38037 6.62451C1.05322 6.70752 0.791992 6.87598 0.59668 7.12988C0.40625 7.37891 0.311035 7.66943 0.311035 8.00146V9.43701C0.311035 9.77393 0.408691 10.0693 0.604004 10.3232C0.799316 10.5771 1.05811 10.7407 1.38037 10.814L2.5376 11.0923L2.58154 11.2095L1.95166 12.2129C1.77588 12.4961 1.70752 12.7964 1.74658 13.1138C1.78564 13.4263 1.92725 13.707 2.17139 13.9561L3.2041 14.9814C3.43848 15.2207 3.71436 15.3623 4.03174 15.4062C4.34912 15.4502 4.65186 15.3818 4.93994 15.2012L5.95068 14.5786L6.0752 14.6226L6.34619 15.7871C6.42432 16.1143 6.58789 16.3755 6.83691 16.5708C7.09082 16.7661 7.38623 16.8638 7.72314 16.8638ZM8.02344 15.2085C7.91113 15.2085 7.84521 15.1548 7.82568 15.0474L7.40088 13.2676C7.15186 13.2188 6.90527 13.1455 6.66113 13.0479C6.42188 12.9453 6.19727 12.8232 5.9873 12.6816L4.41992 13.6411C4.33203 13.7046 4.24658 13.6948 4.16357 13.6118L3.53369 12.9819C3.46045 12.9136 3.45068 12.8306 3.50439 12.7329L4.47852 11.1729C4.34668 10.958 4.23193 10.7334 4.13428 10.499C4.03662 10.2646 3.96094 10.0229 3.90723 9.77393L2.12744 9.35645C2.02002 9.33691 1.96631 9.271 1.96631 9.15869V8.27979C1.96631 8.17236 2.02002 8.10645 2.12744 8.08203L3.90723 7.66455C3.96094 7.41064 4.03662 7.16406 4.13428 6.9248C4.23682 6.68066 4.34912 6.4585 4.47119 6.2583L3.50439 4.69824C3.44092 4.60059 3.4458 4.51514 3.51904 4.44189L4.16357 3.81934C4.2417 3.74121 4.32715 3.73145 4.41992 3.79004L5.97266 4.73486C6.15332 4.61768 6.37061 4.50537 6.62451 4.39795C6.8833 4.29053 7.14209 4.20752 7.40088 4.14893L7.82568 2.36914C7.84521 2.26172 7.91113 2.20801 8.02344 2.20801H8.92432C9.03662 2.20801 9.10254 2.26172 9.12207 2.36914L9.5542 4.15625C9.80811 4.21484 10.0547 4.29541 10.2939 4.39795C10.5332 4.49561 10.7578 4.61035 10.9678 4.74219L12.5132 3.79736C12.6108 3.74365 12.6987 3.75342 12.7769 3.82666L13.4141 4.44922C13.4873 4.52246 13.4946 4.60791 13.436 4.70557L12.4766 6.2583C12.5986 6.4585 12.7085 6.68066 12.8062 6.9248C12.9038 7.16406 12.9795 7.4082 13.0332 7.65723L14.8203 8.08203C14.9277 8.10645 14.9814 8.17236 14.9814 8.27979V9.15869C14.9814 9.271 14.9277 9.33691 14.8203 9.35645L13.0332 9.78125C12.9795 10.0205 12.9038 10.2598 12.8062 10.499C12.7085 10.7383 12.5962 10.9629 12.4692 11.1729L13.4287 12.7256C13.4873 12.8232 13.48 12.9062 13.4067 12.9746L12.7769 13.6045C12.6938 13.6875 12.606 13.6973 12.5132 13.6338L10.9678 12.6816C10.748 12.8232 10.5234 12.9429 10.2939 13.0405C10.0645 13.1382 9.81787 13.2139 9.5542 13.2676L9.12207 15.0474C9.10254 15.1548 9.03662 15.2085 8.92432 15.2085H8.02344ZM8.47021 11.4731C8.97803 11.4731 9.43945 11.3486 9.85449 11.0996C10.2744 10.8506 10.6064 10.5161 10.8506 10.0962C11.0996 9.67627 11.2241 9.21484 11.2241 8.71191C11.2241 8.20898 11.0996 7.75 10.8506 7.33496C10.6064 6.91504 10.2744 6.58301 9.85449 6.33887C9.43945 6.08984 8.97803 5.96533 8.47021 5.96533C7.96729 5.96533 7.50586 6.08984 7.08594 6.33887C6.6709 6.58301 6.33643 6.91504 6.08252 7.33496C5.8335 7.75 5.70898 8.20898 5.70898 8.71191C5.70898 9.21973 5.8335 9.68359 6.08252 10.1035C6.33643 10.5186 6.6709 10.8506 7.08594 11.0996C7.50586 11.3486 7.96729 11.4731 8.47021 11.4731ZM8.47021 10.001C8.23584 10.001 8.021 9.94238 7.82568 9.8252C7.63525 9.70801 7.48145 9.55176 7.36426 9.35645C7.24707 9.16113 7.18848 8.94629 7.18848 8.71191C7.18848 8.47754 7.24707 8.26514 7.36426 8.07471C7.48145 7.87939 7.6377 7.72559 7.83301 7.61328C8.02832 7.49609 8.24072 7.4375 8.47021 7.4375C8.70459 7.4375 8.91699 7.49609 9.10742 7.61328C9.29785 7.72559 9.44922 7.87939 9.56152 8.07471C9.67871 8.26514 9.7373 8.47754 9.7373 8.71191C9.7373 8.94629 9.67871 9.16113 9.56152 9.35645C9.44922 9.55176 9.29785 9.70801 9.10742 9.8252C8.91699 9.94238 8.70459 10.001 8.47021 10.001Z" fill="white" fill-opacity="0.8"/>
</svg>

<svg width="17" height="17" fill="none" xmlns="http://www.w3.org/2000/svg"><path d="M7.723 16.864h1.502c.337 0 .63-.098.879-.293.253-.196.42-.457.498-.784l.263-1.164.125-.044 1.018.622c.283.18.583.25.9.205.318-.044.596-.185.836-.425l1.032-1.025c.245-.249.386-.53.425-.842a1.352 1.352 0 0 0-.205-.901l-.63-1.003.044-.118 1.157-.278c.323-.078.581-.242.777-.49.195-.255.293-.55.293-.887V8.001c0-.332-.098-.625-.293-.878a1.351 1.351 0 0 0-.777-.498l-1.15-.279-.05-.124.63-1.004c.18-.283.248-.58.204-.893a1.491 1.491 0 0 0-.417-.85l-1.04-1.025c-.235-.24-.51-.381-.828-.425a1.32 1.32 0 0 0-.9.198l-1.019.622-.132-.051-.263-1.165a1.35 1.35 0 0 0-.498-.776 1.36 1.36 0 0 0-.88-.3h-1.5a1.39 1.39 0 0 0-1.378 1.076l-.27 1.165-.133.051-1.01-.622a1.345 1.345 0 0 0-.909-.198 1.43 1.43 0 0 0-.827.425L2.164 3.475a1.473 1.473 0 0 0-.425.85c-.039.312.032.61.213.893l.622 1.004-.044.124-1.15.279a1.388 1.388 0 0 0-.783.505C.407 7.379.31 7.67.31 8v1.436c0 .337.098.632.293.886.195.254.454.418.776.491l1.158.278.044.117-.63 1.004a1.351 1.351 0 0 0-.205.9c.039.313.18.594.424.843l1.033 1.025c.234.24.51.381.828.425.317.044.62-.024.908-.205l1.01-.622.125.044.271 1.164a1.366 1.366 0 0 0 1.377 1.077Zm.3-1.655c-.112 0-.178-.054-.197-.162l-.425-1.78a4.13 4.13 0 0 1-.74-.22 4.073 4.073 0 0 1-.674-.365l-1.567.96c-.088.063-.173.053-.256-.03l-.63-.63c-.074-.068-.083-.151-.03-.25l.975-1.56a4.862 4.862 0 0 1-.345-.673 4.165 4.165 0 0 1-.227-.725l-1.78-.418c-.107-.02-.16-.085-.16-.197v-.88c0-.107.053-.173.16-.197l1.78-.417c.054-.254.13-.5.227-.74.103-.244.215-.466.337-.667l-.967-1.56c-.063-.097-.058-.183.015-.256l.645-.623c.078-.078.163-.088.256-.029l1.553.945c.18-.117.398-.23.652-.337.258-.107.517-.19.776-.25l.425-1.779c.02-.107.085-.161.197-.161h.901c.113 0 .179.054.198.161l.432 1.787c.254.059.5.14.74.242.24.098.464.212.674.344l1.545-.945c.098-.053.186-.044.264.03l.637.622c.073.073.08.159.022.257l-.96 1.552c.123.2.232.423.33.667.098.24.174.483.227.732l1.787.425c.108.024.161.09.161.198v.879c0 .112-.053.178-.16.197l-1.788.425a4.82 4.82 0 0 1-.564 1.392l.96 1.553c.058.097.051.18-.022.249l-.63.63c-.083.082-.171.092-.264.029l-1.545-.952c-.22.141-.445.26-.674.358-.23.098-.476.174-.74.228l-.432 1.78c-.02.107-.085.16-.198.16h-.9Zm.447-3.736c.508 0 .97-.124 1.384-.373.42-.25.752-.584.997-1.004.249-.42.373-.881.373-1.384 0-.503-.124-.962-.373-1.377a2.708 2.708 0 0 0-.997-.996 2.639 2.639 0 0 0-1.384-.374c-.503 0-.964.125-1.384.374-.415.244-.75.576-1.003.996a2.626 2.626 0 0 0-.374 1.377c0 .508.125.972.374 1.392.253.415.588.747 1.003.996.42.249.881.373 1.384.373Zm0-1.472a1.23 1.23 0 0 1-.644-.176 1.368 1.368 0 0 1-.462-.469 1.23 1.23 0 0 1-.176-.644c0-.234.06-.447.176-.637.117-.196.274-.35.469-.462.195-.117.408-.176.637-.176.235 0 .447.06.637.176.19.113.342.266.455.462.117.19.175.403.175.637 0 .234-.058.45-.175.644a1.306 1.306 0 0 1-.455.47c-.19.116-.402.175-.637.175Z" fill="#fff" fill-opacity=".8"/></svg>
